img/about/skill_ae.svg

<svg height="40" viewBox="0 0 40 40" width="40" xmlns="http://www.w3.org/2000/svg"><g fill="none" fill-rule="evenodd"><g fill-rule="nonzero" transform="translate(2 2)"><path d="m6.375 0h23.25c3.525 0 6.375 2.85 6.375 6.375v22.35c0 3.525-2.85 6.375-6.375 6.375h-23.25c-3.525 0-6.375-2.85-6.375-6.375v-22.35c0-3.525 2.85-6.375 6.375-6.375z" fill="#00005b"/><path d="m10.11 12h-5.58l-1.14 3.54c-.03.135-.15.225-.285.21h-2.82c-.165 0-.21-.09-.165-.27l4.83-13.845c.045-.15.09-.285.15-.465.06-.315.09-.645.09-.975-.015-.075.045-.15.12-.165h.045 3.84c.105 0 .18.045.195.12l5.475 15.375c.045.165 0 .24-.15.24h-3.135c-.105.015-.21-.06-.24-.165zm-4.71-2.985h3.81c-.09-.315-.21-.69-.345-1.08-.135-.405-.27-.84-.405-1.29-.15-.465-.285-.915-.435-1.38s-.285-.9-.405-1.335c-.12-.42-.225-.81-.33-1.17h-.03c-.135.645-.3 1.29-.51 1.935-.225.72-.45 1.47-.69 2.22-.195.765-.435 1.47-.66 2.1zm18.36 1.605h-4.755c.06.465.21.93.465 1.335.27.405.645.72 1.095.9.6.255 1.26.39 1.92.375.525-.015 1.05-.06 1.56-.165.465-.06.915-.18 1.335-.345.075-.06.12-.03.12.12v2.295c0 .06-.015.12-.03.18-.03.045-.06.075-.105.105-.48.21-.975.36-1.5.45-.705.135-1.41.195-2.13.18-1.14 0-2.1-.18-2.88-.525-.735-.315-1.38-.81-1.89-1.425-.48-.585-.825-1.245-1.035-1.965-.21-.705-.315-1.44-.315-2.19 0-.81.12-1.605.375-2.385.24-.75.615-1.44 1.125-2.055.495-.6 1.11-1.08 1.815-1.425s1.545-.465 2.505-.465c.795-.015 1.59.135 2.325.465.615.27 1.155.675 1.575 1.2.39.51.705 1.08.9 1.71.195.6.285 1.215.285 1.83 0 .36-.015.675-.03.96-.03.285-.045.495-.06.63-.015.105-.105.195-.21.195-.09 0-.255.015-.495.03-.24.03-.525.045-.87.045s-.705-.06-1.095-.06zm-4.755-2.19h3.165c.39 0 .675 0 .855-.015.12-.015.24-.045.345-.12v-.15c0-.195-.03-.375-.09-.555-.27-.84-1.065-1.41-1.95-1.38-.825-.045-1.605.39-1.995 1.14-.18.345-.285.705-.33 1.08z" fill="#99f" transform="translate(4.35 9)"/></g><path d="m0 0h40v40h-40z"/></g></svg>

<svg xmlns="http://www.w3.org/2000/svg" width="40" height="40" viewBox="0 0 40 40">
  <g fill="none" fill-rule="evenodd">
    <g fill-rule="nonzero" transform="translate(2 2)">
      <path fill="#00005B" d="M6.375,0 L29.625,0 C33.15,0 36,2.85 36,6.375 L36,28.725 C36,32.25 33.15,35.1 29.625,35.1 L6.375,35.1 C2.85,35.1 0,32.25 0,28.725 L0,6.375 C0,2.85 2.85,0 6.375,0 Z"/>
      <path fill="#99F" d="M10.11 12L4.53 12 3.39 15.54C3.36 15.675 3.24 15.765 3.105 15.75L.285 15.75C.12 15.75.075 15.66.12 15.48L4.95 1.635C4.995 1.485 5.04 1.35 5.1 1.17 5.16.855 5.19.525 5.19.195 5.175.12 5.235.045 5.31.03 5.325.03 5.34.03 5.355.03L9.195.03C9.3.03 9.375.075 9.39.15L14.865 15.525C14.91 15.69 14.865 15.765 14.715 15.765L11.58 15.765C11.475 15.78 11.37 15.705 11.34 15.6L10.11 12zM5.4 9.015L9.21 9.015C9.12 8.7 9 8.325 8.865 7.935 8.73 7.53 8.595 7.095 8.46 6.645 8.31 6.18 8.175 5.73 8.025 5.265 7.875 4.8 7.74 4.365 7.62 3.93 7.5 3.51 7.395 3.12 7.29 2.76L7.26 2.76C7.125 3.405 6.96 4.05 6.75 4.695 6.525 5.415 6.3 6.165 6.06 6.915 5.865 7.68 5.625 8.385 5.4 9.015zM23.76 10.62L19.005 10.62C19.065 11.085 19.215 11.55 19.47 11.955 19.74 12.36 20.115 12.675 20.565 12.855 21.165 13.11 21.825 13.245 22.485 13.23 23.01 13.215 23.535 13.17 24.045 13.065 24.51 13.005 24.96 12.885 25.38 12.72 25.455 12.66 25.5 12.69 25.5 12.84L25.5 15.135C25.5 15.195 25.485 15.255 25.47 15.315 25.44 15.36 25.41 15.39 25.365 15.42 24.885 15.63 24.39 15.78 23.865 15.87 23.16 16.005 22.455 16.065 21.735 16.05 20.595 16.05 19.635 15.87 18.855 15.525 18.12 15.21 17.475 14.715 16.965 14.1 16.485 13.515 16.14 12.855 15.93 12.135 15.72 11.43 15.615 10.695 15.615 9.945 15.615 9.135 15.735 8.34 15.99 7.56 16.23 6.81 16.605 6.12 17.115 5.505 17.61 4.905 18.225 4.425 18.93 4.08 19.635 3.735 20.475 3.615 21.435 3.615 22.23 3.6 23.025 3.75 23.76 4.08 24.375 4.35 24.915 4.755 25.335 5.28 25.725 5.79 26.04 6.36 26.235 6.99 26.43 7.59 26.52 8.205 26.52 8.82 26.52 9.18 26.505 9.495 26.49 9.78 26.46 10.065 26.445 10.275 26.43 10.41 26.415 10.515 26.325 10.605 26.22 10.605 26.13 10.605 25.965 10.62 25.725 10.635 25.485 10.665 25.2 10.68 24.855 10.68 24.51 10.68 24.15 10.62 23.76 10.62zM19.005 8.43L22.17 8.43C22.56 8.43 22.845 8.43 23.025 8.415 23.145 8.4 23.265 8.37 23.37 8.295L23.37 8.145C23.37 7.95 23.34 7.77 23.28 7.59 23.01 6.75 22.215 6.18 21.33 6.21 20.505 6.165 19.725 6.6 19.335 7.35 19.155 7.695 19.05 8.055 19.005 8.43z" transform="translate(4.35 9)"/>
    </g>
    <rect width="40" height="40"/>
  </g>
</svg>
